X: 10201
T: Edinburgh Review Waltz 1.
C: P. MILNE.
B: K\"ohler's Violin Repository, v.1, 1885 p.20 #1
F: http://www.archive.org/details/klersviolinrepos01edin
Z: 2011 John Chambers <jc:trillian.mit.edu>
M: 3/4
L: 1/8
K: Bb
|:\
!p!vD6 | D6 | (D2C3B,) | G,4z2 | vF6 | F6 | (G2F3D) | C6 !f!|\
D6 | D6 | (D2C3B,) | G,4z2 | vG6 | G6 | (G2F3A,) | B,6 !ff!|
vd6 | d6 | (d2c3B) | G4z2 | f6 | f6 | (g2f3d) | c4z2 |\
d6 | d6 | (d2c3B) | G4z2 | g6 | g6 | (g2f3A) | B2 |]
(ufgfg) | (.f3.d)d2 | z2(ufgfg) | (.f3.d)d2 |\
z2(uabab) | (.a3.g)g2 | z2(ugaga) | (.g3.f)f2 |
z2(ufgfg) | (.f3.d)d2 | z2(ufgfg) | (.f3.d)d2 |\
z2 (ue=ef^f) | (.g3.f)f2 | (.b2.a)a2 | (.d'3.c')c'2 |[1 b2 :|[2 b2z2z2 "_D.C."|]

%%sep 2 1 500

